X:1
T:Crowborough, LM
T:Crowborough, LM
T:Walter Grenville Whinfield, ca. 1902
T:Public Domain Courtesy of the Cyber Hymnal™
C:Walter Grenville Whinfield, ca. 1902
Z:Public Domain
Z:Courtesy of the Cyber Hymnal™
%%score ( 1 2 ) ( 3 4 )
L:1/8
Q:1/4=112
M:none
K:G
V:1 treble 
V:2 treble 
V:3 bass 
V:4 bass 
V:1
 [DG]2 | [EG]2 [Cc]2 [DB]2 [DG]2 | G2 [Ge]2 [Gd]2 d2 | ([Ec][DB]) ([CA][B,G]) F2 z x3 | %4
 [DG]2 [DB]2 !fermata![DA]2 [DF]2 | (GB) z d2 [Ac]2 x | [GB]3 [FA] G2 (EF) | %7
 (GA) Bc [DB]2 [EG]2 x | [DG]2 [DF]2 [DG]2 |] %9
V:2
 x2 | x8 | (EF) x3 (GF) x | x4 A,3 (F2 D) | x8 | D3 (d2 E) (FG) | x4 G2 C2 | D2 D2 x5 | x6 |] %9
V:3
 [B,,G,]2 | [C,G,]2 [A,,F,]2 [G,,G,]2 [B,,G,]2 | G,2 C2 [G,B,]2 [B,,G,]2 | %3
 [C,G,]2 [C,E]2 D2 [F,D]2 x2 | (CB,) (A,G,) !fermata![D,F,]2 D,2 | %5
 [B,,G,]2 [G,,B,]2 [D,A,]2 [D,F,]2 | (G,B,) z [B,D]2 [A,C]2 x | B,3 z A, G,2 (E,F,) | %8
 (G,A,) (B,C) [G,,B,]2 |] %9
V:4
 x2 | x8 | (C,D,) (E,F,) x4 | x4 (D,E,) x4 | G,2 G,,2 x (D,C,) x | x8 | G,3 D2 A, x2 | %7
 G,2 F,2 G,2 C,2 x | B,,2 A,,2 x2 |] %9

